X:7
T:Olivia
R:reel
C:Paul S. Cranford
O:Cape Breton Island
S:http://www.cranfordpub.com
D:currently unrecorded
B:The Victoria Standard, 1997
Z:psc, (re-formatted,updated 9/17/04)
N:Commissioned 1997 by Dr. Jim O'Brien to celebrate the birth of his first grand-daughter
H:                                                        copyrights Cranford Publications, SOCANL:1/8
Q:333
M:C|
K:A
AB|c2 ae fecA|BABd cAFA|EA,CE DFAF|EAAc BABd|
c/c/c ae fecA|BABd cAFA|EAAc BFAc|ecBc A/A/A:|
|:cd|e2 cA BABc|ABcA E/E/E Ac|dBcA BFAc|1dcBA Bcdf|
eAcA BAFB|ABcA E/E/E Ac|dBcA Bcdf|ecBc A/A/A:|
[2dcBA BcdB|c/c/c ae fecA|dcBA F2 AF|EAAc BFAc|ecBc A2 |]
